src/assets/images/photostop_2.svg

<svg height="98" viewBox="0 0 98 98" width="98" xmlns="http://www.w3.org/2000/svg"><g fill="none" transform="translate(9.33 15.863333)"><path d="m5.37 7.003333h66.966667v9.8h-66.966667z" fill="#fff"/><path d="m20.07.47h14.7c2.45 0 3.2666667.81666667 4.0833333 2.12333333l3.2666667 6.04333334c.8166667 1.63333333 2.45 3.26666663 5.7166667 3.26666663h24.5c3.5933333 0 6.5333333 2.94 6.5333333 6.5333334v39.2c0 3.5933333-2.94 6.5333333-6.5333333 6.5333333h-65.33333337c-3.59333333 0-6.53333333-2.94-6.53333333-6.5333333v-39.2c0-3.5933334 2.94-6.5333334 6.53333333-6.5333334 3.26666667 0 4.89999997-1.6333333 5.71666667-3.26666663l3.2666667-6.04333334c.8166666-1.30666666 1.6333333-2.12333333 4.0833333-2.12333333z" fill="#fff" stroke="#4d4d4d" stroke-width="2"/><path d="m20.07 25.1333333c-2.6133333 0-4.7366667 2.1233334-4.7366667 4.7366667h2.94c0-.98.8166667-1.7966667 1.7966667-1.7966667zm27.7666667 2.94c.98 0 1.7966666.8166667 1.7966666 1.7966667h2.94c0-2.6133333-2.1233333-4.7366667-4.7366666-4.7366667zm1.7966666 23.03c0 .98-.8166666 1.7966667-1.7966666 1.7966667v2.94c2.6133333 0 4.7366666-2.1233333 4.7366666-4.7366667zm-29.5633333 1.7966667c-.98 0-1.7966667-.8166667-1.7966667-1.7966667h-2.94c0 2.6133334 2.1233334 4.7366667 4.7366667 4.7366667zm-1.7966667-1.7966667v-21.2333333h-2.94v21.2333333zm29.5633334 1.7966667h-27.7666667v2.94h27.7666667zm1.7966666-23.03v21.2333333h2.94v-21.2333333zm-29.5633333-1.7966667h27.7666667v-2.94h-27.7666667z" fill="#4d4d4d"/><path d="m15.17 24.97h31.033333v21.233333h-31.033333z" fill="#fff"/><path d="m42.7733333 49.47v-1.1433333h-2.94v1.1433333zm-16.17 1.47h14.7v-2.94h-14.7zm-1.47-2.6133333v1.1433333h2.94v-1.1433333zm8.82-8.4933334c-4.7366666 0-8.82 3.7566667-8.82 8.4933334h2.94c0-2.94 2.6133334-5.5533334 5.88-5.5533334zm0 2.94c3.2666667 0 5.88 2.6133334 5.88 5.5533334h2.94c0-4.7366667-4.0833333-8.4933334-8.82-8.4933334zm7.35 6.6966667v1.47h1.47v-1.47zm-14.7 0h-1.47v1.47h1.47z" fill="#4d4d4d"/><path d="m29.87 48c0-4.5733333-4.41-8.33-9.8-8.33s-9.8 3.7566667-9.8 8.33v1.47h19.6z" fill="#fff"/><path d="m31.34 49.47v-1.47h-2.94v1.47zm-21.07 1.47h19.6v-2.94h-19.6zm-1.47-2.94v1.47h2.94v-1.47zm11.27-9.8c-6.0433333 0-11.27 4.2466667-11.27 9.8h2.94c0-3.5933333 3.43-6.86 8.33-6.86zm0 2.94c4.9 0 8.33 3.2666667 8.33 6.86h2.94c0-5.7166667-5.2266667-9.8-11.27-9.8zm9.8 8.33v1.47h1.47v-1.47zm-19.6 0h-1.47v1.47h1.47z" fill="#4d4d4d"/><circle cx="20.07" cy="30.686667" fill="#fff" r="4.9"/><path d="m20.07 27.2566667c1.96 0 3.43 1.47 3.43 3.43h2.94c0-3.5933334-2.7766667-6.37-6.37-6.37zm-3.43 3.43c0-1.96 1.47-3.43 3.43-3.43v-2.94c-3.5933333 0-6.37 2.7766666-6.37 6.37zm3.43 3.43c-1.96 0-3.43-1.47-3.43-3.43h-2.94c0 3.5933333 2.7766667 6.37 6.37 6.37zm3.43-3.43c0 1.96-1.47 3.43-3.43 3.43v2.94c3.5933333 0 6.37-2.7766667 6.37-6.37z" fill="#4d4d4d"/><circle cx="33.953333" cy="33.136667" fill="#fff" r="4.083333"/><path d="m33.9533333 30.5233333c1.47 0 2.6133334 1.1433334 2.6133334 2.6133334h2.94c0-3.1033334-2.45-5.5533334-5.5533334-5.5533334zm-2.6133333 2.6133334c0-1.47 1.1433333-2.6133334 2.6133333-2.6133334v-2.94c-3.1033333 0-5.5533333 2.45-5.5533333 5.5533334zm2.6133333 2.6133333c-1.47 0-2.6133333-1.1433333-2.6133333-2.6133333h-2.94c0 3.1033333 2.45 5.5533333 5.5533333 5.5533333zm2.6133334-2.6133333c0 1.47-1.1433334 2.6133333-2.6133334 2.6133333v2.94c3.1033334 0 5.5533334-2.45 5.5533334-5.5533333z" fill="#4d4d4d"/><path d="m13.5366667 15.0066667c-4.57333337 0-8.33000003 3.7566666-8.33000003 8.33h10.12666663c0 .98-.8166666 1.7966666-1.7966666 1.7966666zm27.7666666 10.1266666c-.98 0-1.7966666-.8166666-1.7966666-1.7966666h10.1266666c0-4.5733334-3.7566666-8.33-8.33-8.33zm-1.7966666 19.4366667c0-.98.8166666-1.7966667 1.7966666-1.7966667v10.1266667c4.5733334 0 8.33-3.7566667 8.33-8.33zm-25.97-1.7966667c.98 0 1.7966666.8166667 1.7966666 1.7966667h-10.12666663c0 4.5733333 3.75666666 8.33 8.33000003 8.33zm1.7966666 1.7966667v-21.2333333h-10.12666663v21.2333333zm25.97-1.7966667h-27.7666666v10.1266667h27.7666666zm-1.7966666-19.4366666v21.2333333h10.1266666v-21.2333333zm-25.97 1.7966666h27.7666666v-10.1266666h-27.7666666z" fill="#fff"/><g fill="#4d4d4d"><path d="m13.5366667 18.6c-2.6133334 0-4.7366667 2.1233333-4.7366667 4.7366667h2.94c0-.98.8166667-1.7966667 1.7966667-1.7966667zm27.7666666 2.94c.98 0 1.7966667.8166667 1.7966667 1.7966667h2.94c0-2.6133334-2.1233333-4.7366667-4.7366667-4.7366667zm1.7966667 23.03c0 .98-.8166667 1.7966667-1.7966667 1.7966667v2.94c2.6133334 0 4.7366667-2.1233334 4.7366667-4.7366667zm-29.5633333 1.7966667c-.98 0-1.7966667-.8166667-1.7966667-1.7966667h-2.94c0 2.6133333 2.1233333 4.7366667 4.7366667 4.7366667zm-1.7966667-1.7966667v-21.2333333h-2.94v21.2333333zm29.5633333 1.7966667h-27.7666666v2.94h27.7666666zm1.7966667-23.03v21.2333333h2.94v-21.2333333zm-29.5633333-1.7966667h27.7666666v-2.94h-27.7666666z"/><path d="m65.8033333 23.5c-2.6133333 0-4.7366666 2.1233333-4.7366666 4.7366667h2.94c0-.98.8166666-1.7966667 1.7966666-1.7966667zm0 2.94c.98 0 1.7966667.8166667 1.7966667 1.7966667h2.94c0-2.6133334-2.1233333-4.7366667-4.7366667-4.7366667zm1.7966667 21.3966667c0 .98-.8166667 1.7966666-1.7966667 1.7966666v2.94c2.6133334 0 4.7366667-2.1233333 4.7366667-4.7366666zm-1.7966667 1.7966666c-.98 0-1.7966666-.8166666-1.7966666-1.7966666h-2.94c0 2.6133333 2.1233333 4.7366666 4.7366666 4.7366666zm-1.7966666-1.7966666v-19.6h-2.94v19.6zm3.5933333-19.6v19.6h2.94v-19.6z"/><path d="m62.536667 33.3h6.533333v2.94h-6.533333z"/><path d="m62.536667 39.833333h6.533333v2.94h-6.533333z"/></g><path d="m59.27 36.24h13.066667v3.593333h-13.066667z" fill="#fff"/><path d="m23.3366667 3.9c-2.6133334 0-4.7366667 2.12333333-4.7366667 4.73666667h2.94c0-.98.8166667-1.79666667 1.7966667-1.79666667zm8.1666666 2.94c.98 0 1.7966667.81666667 1.7966667 1.79666667h2.94c0-2.61333334-2.1233333-4.73666667-4.7366667-4.73666667zm1.7966667 1.79666667c0 .98-.8166667 1.79666663-1.7966667 1.79666663v2.94c2.6133334 0 4.7366667-2.1233333 4.7366667-4.73666663zm-9.9633333 1.79666663c-.98 0-1.7966667-.81666663-1.7966667-1.79666663h-2.94c0 2.61333333 2.1233333 4.73666663 4.7366667 4.73666663zm8.1666666 0h-8.1666666v2.94h8.1666666zm-8.1666666-3.5933333h8.1666666v-2.94h-8.1666666z" fill="#4d4d4d"/></g></svg>

<?xml version="1.0" encoding="UTF-8"?>
<svg width="98px" height="98px" viewBox="0 0 98 98" version="1.1" xmlns="http://www.w3.org/2000/svg" xmlns:xlink="http://www.w3.org/1999/xlink">
    <title>Group 35</title>
    <g id="Design" stroke="none" stroke-width="1" fill="none" fill-rule="evenodd">
        <g id="ТУР" transform="translate(-1039.000000, -941.000000)" fill-rule="nonzero">
            <g id="Group-35" transform="translate(1039.000000, 941.000000)">
                <g id="Group-29" transform="translate(9.330000, 15.863333)">
                    <rect id="Rectangle" fill="#FFFFFF" x="5.37" y="7.00333333" width="66.9666667" height="9.8"></rect>
                    <path d="M20.07,0.47 L34.77,0.47 C37.22,0.47 38.0366667,1.28666667 38.8533333,2.59333333 L42.12,8.63666667 C42.9366667,10.27 44.57,11.9033333 47.8366667,11.9033333 L72.3366667,11.9033333 C75.93,11.9033333 78.87,14.8433333 78.87,18.4366667 L78.87,57.6366667 C78.87,61.23 75.93,64.17 72.3366667,64.17 L7.00333333,64.17 C3.41,64.17 0.47,61.23 0.47,57.6366667 L0.47,18.4366667 C0.47,14.8433333 3.41,11.9033333 7.00333333,11.9033333 C10.27,11.9033333 11.9033333,10.27 12.72,8.63666667 L15.9866667,2.59333333 C16.8033333,1.28666667 17.62,0.47 20.07,0.47 Z" id="Path" stroke="#4D4D4D" stroke-width="2" fill="#FFFFFF"></path>
                    <path d="M20.07,25.1333333 C17.4566667,25.1333333 15.3333333,27.2566667 15.3333333,29.87 L18.2733333,29.87 C18.2733333,28.89 19.09,28.0733333 20.07,28.0733333 L20.07,25.1333333 Z M47.8366667,28.0733333 C48.8166667,28.0733333 49.6333333,28.89 49.6333333,29.87 L52.5733333,29.87 C52.5733333,27.2566667 50.45,25.1333333 47.8366667,25.1333333 L47.8366667,28.0733333 Z M49.6333333,51.1033333 C49.6333333,52.0833333 48.8166667,52.9 47.8366667,52.9 L47.8366667,55.84 C50.45,55.84 52.5733333,53.7166667 52.5733333,51.1033333 L49.6333333,51.1033333 Z M20.07,52.9 C19.09,52.9 18.2733333,52.0833333 18.2733333,51.1033333 L15.3333333,51.1033333 C15.3333333,53.7166667 17.4566667,55.84 20.07,55.84 L20.07,52.9 Z M18.2733333,51.1033333 L18.2733333,29.87 L15.3333333,29.87 L15.3333333,51.1033333 L18.2733333,51.1033333 Z M47.8366667,52.9 L20.07,52.9 L20.07,55.84 L47.8366667,55.84 L47.8366667,52.9 Z M49.6333333,29.87 L49.6333333,51.1033333 L52.5733333,51.1033333 L52.5733333,29.87 L49.6333333,29.87 Z M20.07,28.0733333 L47.8366667,28.0733333 L47.8366667,25.1333333 L20.07,25.1333333 L20.07,28.0733333 Z" id="Shape" fill="#4D4D4D"></path>
                    <rect id="Rectangle" fill="#FFFFFF" x="15.17" y="24.97" width="31.0333333" height="21.2333333"></rect>
                    <path d="M42.7733333,49.47 L42.7733333,48.3266667 L39.8333333,48.3266667 L39.8333333,49.47 L42.7733333,49.47 Z M26.6033333,50.94 L41.3033333,50.94 L41.3033333,48 L26.6033333,48 L26.6033333,50.94 Z M25.1333333,48.3266667 L25.1333333,49.47 L28.0733333,49.47 L28.0733333,48.3266667 L25.1333333,48.3266667 Z M33.9533333,39.8333333 C29.2166667,39.8333333 25.1333333,43.59 25.1333333,48.3266667 L28.0733333,48.3266667 C28.0733333,45.3866667 30.6866667,42.7733333 33.9533333,42.7733333 L33.9533333,39.8333333 Z M33.9533333,42.7733333 C37.22,42.7733333 39.8333333,45.3866667 39.8333333,48.3266667 L42.7733333,48.3266667 C42.7733333,43.59 38.69,39.8333333 33.9533333,39.8333333 L33.9533333,42.7733333 Z M41.3033333,49.47 L41.3033333,50.94 L42.7733333,50.94 L42.7733333,49.47 L41.3033333,49.47 Z M26.6033333,49.47 L25.1333333,49.47 L25.1333333,50.94 L26.6033333,50.94 L26.6033333,49.47 Z" id="Shape" fill="#4D4D4D"></path>
                    <path d="M29.87,48 C29.87,43.4266667 25.46,39.67 20.07,39.67 C14.68,39.67 10.27,43.4266667 10.27,48 L10.27,49.47 L29.87,49.47 L29.87,48 Z" id="Path" fill="#FFFFFF"></path>
                    <path d="M31.34,49.47 L31.34,48 L28.4,48 L28.4,49.47 L31.34,49.47 Z M10.27,50.94 L29.87,50.94 L29.87,48 L10.27,48 L10.27,50.94 Z M8.8,48 L8.8,49.47 L11.74,49.47 L11.74,48 L8.8,48 Z M20.07,38.2 C14.0266667,38.2 8.8,42.4466667 8.8,48 L11.74,48 C11.74,44.4066667 15.17,41.14 20.07,41.14 L20.07,38.2 Z M20.07,41.14 C24.97,41.14 28.4,44.4066667 28.4,48 L31.34,48 C31.34,42.2833333 26.1133333,38.2 20.07,38.2 L20.07,41.14 Z M29.87,49.47 L29.87,50.94 L31.34,50.94 L31.34,49.47 L29.87,49.47 Z M10.27,49.47 L8.8,49.47 L8.8,50.94 L10.27,50.94 L10.27,49.47 Z" id="Shape" fill="#4D4D4D"></path>
                    <circle id="Oval" fill="#FFFFFF" cx="20.07" cy="30.6866667" r="4.9"></circle>
                    <path d="M20.07,27.2566667 C22.03,27.2566667 23.5,28.7266667 23.5,30.6866667 L26.44,30.6866667 C26.44,27.0933333 23.6633333,24.3166667 20.07,24.3166667 L20.07,27.2566667 Z M16.64,30.6866667 C16.64,28.7266667 18.11,27.2566667 20.07,27.2566667 L20.07,24.3166667 C16.4766667,24.3166667 13.7,27.0933333 13.7,30.6866667 L16.64,30.6866667 Z M20.07,34.1166667 C18.11,34.1166667 16.64,32.6466667 16.64,30.6866667 L13.7,30.6866667 C13.7,34.28 16.4766667,37.0566667 20.07,37.0566667 L20.07,34.1166667 Z M23.5,30.6866667 C23.5,32.6466667 22.03,34.1166667 20.07,34.1166667 L20.07,37.0566667 C23.6633333,37.0566667 26.44,34.28 26.44,30.6866667 L23.5,30.6866667 Z" id="Shape" fill="#4D4D4D"></path>
                    <circle id="Oval" fill="#FFFFFF" cx="33.9533333" cy="33.1366667" r="4.08333333"></circle>
                    <path d="M33.9533333,30.5233333 C35.4233333,30.5233333 36.5666667,31.6666667 36.5666667,33.1366667 L39.5066667,33.1366667 C39.5066667,30.0333333 37.0566667,27.5833333 33.9533333,27.5833333 L33.9533333,30.5233333 Z M31.34,33.1366667 C31.34,31.6666667 32.4833333,30.5233333 33.9533333,30.5233333 L33.9533333,27.5833333 C30.85,27.5833333 28.4,30.0333333 28.4,33.1366667 L31.34,33.1366667 Z M33.9533333,35.75 C32.4833333,35.75 31.34,34.6066667 31.34,33.1366667 L28.4,33.1366667 C28.4,36.24 30.85,38.69 33.9533333,38.69 L33.9533333,35.75 Z M36.5666667,33.1366667 C36.5666667,34.6066667 35.4233333,35.75 33.9533333,35.75 L33.9533333,38.69 C37.0566667,38.69 39.5066667,36.24 39.5066667,33.1366667 L36.5666667,33.1366667 Z" id="Shape" fill="#4D4D4D"></path>
                    <path d="M13.5366667,15.0066667 C8.96333333,15.0066667 5.20666667,18.7633333 5.20666667,23.3366667 L15.3333333,23.3366667 C15.3333333,24.3166667 14.5166667,25.1333333 13.5366667,25.1333333 L13.5366667,15.0066667 Z M41.3033333,25.1333333 C40.3233333,25.1333333 39.5066667,24.3166667 39.5066667,23.3366667 L49.6333333,23.3366667 C49.6333333,18.7633333 45.8766667,15.0066667 41.3033333,15.0066667 L41.3033333,25.1333333 Z M39.5066667,44.57 C39.5066667,43.59 40.3233333,42.7733333 41.3033333,42.7733333 L41.3033333,52.9 C45.8766667,52.9 49.6333333,49.1433333 49.6333333,44.57 L39.5066667,44.57 Z M13.5366667,42.7733333 C14.5166667,42.7733333 15.3333333,43.59 15.3333333,44.57 L5.20666667,44.57 C5.20666667,49.1433333 8.96333333,52.9 13.5366667,52.9 L13.5366667,42.7733333 Z M15.3333333,44.57 L15.3333333,23.3366667 L5.20666667,23.3366667 L5.20666667,44.57 L15.3333333,44.57 Z M41.3033333,42.7733333 L13.5366667,42.7733333 L13.5366667,52.9 L41.3033333,52.9 L41.3033333,42.7733333 Z M39.5066667,23.3366667 L39.5066667,44.57 L49.6333333,44.57 L49.6333333,23.3366667 L39.5066667,23.3366667 Z M13.5366667,25.1333333 L41.3033333,25.1333333 L41.3033333,15.0066667 L13.5366667,15.0066667 L13.5366667,25.1333333 Z" id="Shape" fill="#FFFFFF"></path>
                    <path d="M13.5366667,18.6 C10.9233333,18.6 8.8,20.7233333 8.8,23.3366667 L11.74,23.3366667 C11.74,22.3566667 12.5566667,21.54 13.5366667,21.54 L13.5366667,18.6 Z M41.3033333,21.54 C42.2833333,21.54 43.1,22.3566667 43.1,23.3366667 L46.04,23.3366667 C46.04,20.7233333 43.9166667,18.6 41.3033333,18.6 L41.3033333,21.54 Z M43.1,44.57 C43.1,45.55 42.2833333,46.3666667 41.3033333,46.3666667 L41.3033333,49.3066667 C43.9166667,49.3066667 46.04,47.1833333 46.04,44.57 L43.1,44.57 Z M13.5366667,46.3666667 C12.5566667,46.3666667 11.74,45.55 11.74,44.57 L8.8,44.57 C8.8,47.1833333 10.9233333,49.3066667 13.5366667,49.3066667 L13.5366667,46.3666667 Z M11.74,44.57 L11.74,23.3366667 L8.8,23.3366667 L8.8,44.57 L11.74,44.57 Z M41.3033333,46.3666667 L13.5366667,46.3666667 L13.5366667,49.3066667 L41.3033333,49.3066667 L41.3033333,46.3666667 Z M43.1,23.3366667 L43.1,44.57 L46.04,44.57 L46.04,23.3366667 L43.1,23.3366667 Z M13.5366667,21.54 L41.3033333,21.54 L41.3033333,18.6 L13.5366667,18.6 L13.5366667,21.54 Z" id="Shape" fill="#4D4D4D"></path>
                    <path d="M65.8033333,23.5 C63.19,23.5 61.0666667,25.6233333 61.0666667,28.2366667 L64.0066667,28.2366667 C64.0066667,27.2566667 64.8233333,26.44 65.8033333,26.44 L65.8033333,23.5 Z M65.8033333,26.44 C66.7833333,26.44 67.6,27.2566667 67.6,28.2366667 L70.54,28.2366667 C70.54,25.6233333 68.4166667,23.5 65.8033333,23.5 L65.8033333,26.44 Z M67.6,47.8366667 C67.6,48.8166667 66.7833333,49.6333333 65.8033333,49.6333333 L65.8033333,52.5733333 C68.4166667,52.5733333 70.54,50.45 70.54,47.8366667 L67.6,47.8366667 Z M65.8033333,49.6333333 C64.8233333,49.6333333 64.0066667,48.8166667 64.0066667,47.8366667 L61.0666667,47.8366667 C61.0666667,50.45 63.19,52.5733333 65.8033333,52.5733333 L65.8033333,49.6333333 Z M64.0066667,47.8366667 L64.0066667,28.2366667 L61.0666667,28.2366667 L61.0666667,47.8366667 L64.0066667,47.8366667 Z M67.6,28.2366667 L67.6,47.8366667 L70.54,47.8366667 L70.54,28.2366667 L67.6,28.2366667 Z" id="Shape" fill="#4D4D4D"></path>
                    <rect id="Rectangle" fill="#4D4D4D" x="62.5366667" y="33.3" width="6.53333333" height="2.94"></rect>
                    <rect id="Rectangle" fill="#4D4D4D" x="62.5366667" y="39.8333333" width="6.53333333" height="2.94"></rect>
                    <rect id="Rectangle" fill="#FFFFFF" x="59.27" y="36.24" width="13.0666667" height="3.59333333"></rect>
                    <path d="M23.3366667,3.9 C20.7233333,3.9 18.6,6.02333333 18.6,8.63666667 L21.54,8.63666667 C21.54,7.65666667 22.3566667,6.84 23.3366667,6.84 L23.3366667,3.9 Z M31.5033333,6.84 C32.4833333,6.84 33.3,7.65666667 33.3,8.63666667 L36.24,8.63666667 C36.24,6.02333333 34.1166667,3.9 31.5033333,3.9 L31.5033333,6.84 Z M33.3,8.63666667 C33.3,9.61666667 32.4833333,10.4333333 31.5033333,10.4333333 L31.5033333,13.3733333 C34.1166667,13.3733333 36.24,11.25 36.24,8.63666667 L33.3,8.63666667 Z M23.3366667,10.4333333 C22.3566667,10.4333333 21.54,9.61666667 21.54,8.63666667 L18.6,8.63666667 C18.6,11.25 20.7233333,13.3733333 23.3366667,13.3733333 L23.3366667,10.4333333 Z M31.5033333,10.4333333 L23.3366667,10.4333333 L23.3366667,13.3733333 L31.5033333,13.3733333 L31.5033333,10.4333333 Z M23.3366667,6.84 L31.5033333,6.84 L31.5033333,3.9 L23.3366667,3.9 L23.3366667,6.84 Z" id="Shape" fill="#4D4D4D"></path>
                </g>
            </g>
        </g>
    </g>
</svg>
